outputs/icons/hardware/devices_ecosystem_round.svg

<svg xmlns="http://www.w3.org/2000/svg" width="1200" height="1200" fill="none"><g clip-path="url(#a)"><path fill="#000" d="M150 350c0-27.5 22.5-50 50-50h800c27.5 0 50-22.5 50-50s-22.5-50-50-50H150c-55 0-100 45-100 100v600c0 55 45 100 100 100h150c27.5 0 50-22.5 50-50s-22.5-50-50-50H200c-27.5 0-50-22.5-50-50zm450 250H500c-27.5 0-50 22.5-50 50v39c-30.5 27.5-50 66.5-50 111s19.5 83.5 50 111v39c0 27.5 22.5 50 50 50h100c27.5 0 50-22.5 50-50v-39c30.5-27.5 50-67 50-111s-19.5-83.5-50-111v-39c0-27.5-22.5-50-50-50m-50 275c-41.5 0-75-33.5-75-75s33.5-75 75-75 75 33.5 75 75-33.5 75-75 75m550-475H800c-25 0-50 25-50 50v500c0 25 25 50 50 50h300c25 0 50-25 50-50V450c0-25-25-50-50-50m-50 500H850V500h200z"/></g><defs><clipPath id="a"><path fill="#fff" d="M0 0h1200v1200H0z"/></clipPath></defs></svg>

<svg width="1200" height="1200" viewBox="0 0 1200 1200" fill="none" xmlns="http://www.w3.org/2000/svg"><g clip-path="url(#clip0_238_1285)"><path d="M150 350C150 322.5 172.5 300 200 300H1000C1027.5 300 1050 277.5 1050 250C1050 222.5 1027.5 200 1000 200H150C95 200 50 245 50 300V900C50 955 95 1000 150 1000H300C327.5 1000 350 977.5 350 950C350 922.5 327.5 900 300 900H200C172.5 900 150 877.5 150 850V350ZM600 600H500C472.5 600 450 622.5 450 650V689C419.5 716.5 400 755.5 400 800C400 844.5 419.5 883.5 450 911V950C450 977.5 472.5 1000 500 1000H600C627.5 1000 650 977.5 650 950V911C680.5 883.5 700 844 700 800C700 756 680.5 716.5 650 689V650C650 622.5 627.5 600 600 600ZM550 875C508.5 875 475 841.5 475 800C475 758.5 508.5 725 550 725C591.5 725 625 758.5 625 800C625 841.5 591.5 875 550 875ZM1100 400H800C775 400 750 425 750 450V950C750 975 775 1000 800 1000H1100C1125 1000 1150 975 1150 950V450C1150 425 1125 400 1100 400ZM1050 900H850V500H1050V900Z" fill="black"/></g><defs><clipPath id="clip0_238_1285"><path width="24" fill="white" d="M0 0H1200V1200H0V0z"/></clipPath></defs></svg>
